resources/svg/infrared-thermometer-fill.svg

<svg fill="currentColor" viewBox="0 0 24 24" xmlns="http://www.w3.org/2000/svg"><path d="M21 2V11H17.999L18 12C18 14.2091 16.2091 16 14 16H12.621L12.0084 19.1113L12.9192 20.4324C13.2327 20.8871 13.1182 21.5098 12.6635 21.8233C12.4966 21.9384 12.2987 22 12.0959 22H3L5.31286 11.9762L3 11L7 2H21ZM15.999 11H13.6051L13.014 14H14C15.1046 14 16 13.1046 16 12L15.999 11Z"/></svg>

<svg xmlns="http://www.w3.org/2000/svg" viewBox="0 0 24 24" fill="currentColor">
    <g>
        <path fill="none" d="M0 0H24V24H0z"/>
        <path d="M21 2v9h-3.001L18 12c0 2.21-1.79 4-4 4h-1.379l-.613 3.111.911 1.321c.314.455.2 1.078-.255 1.391-.167.115-.365.177-.568.177H3l2.313-10.024L3 11l4-9h14zm-5.001 9h-2.394l-.591 3H14c1.105 0 2-.895 2-2l-.001-1z"/>
    </g>
</svg>
